app/dist/common/images/eastern-bankshares.svg

<svg height="18" viewBox="0 0 18 18" width="18" xmlns="http://www.w3.org/2000/svg"><path d="m0 0h18v18h-18z" fill="#013668"/><path d="m5.26 11 .01-.04c.05-1.32.65-1.92 1.55-2.8a52.28 52.28 0 0 0 1.01-1.01l1.67-1.65-1.5-1.5c-.62.55-1.24 1.2-1.8 1.78a44 44 0 0 1 -.76.8l-.11.1c-.73.68-1.3 1.24-1.33 2.14 0 .68.25 1.34.83 1.82l.28.24zm3.17 3h.39l-.2-.2c-.13-.13-.27-.27-.43-.6-.15-.3-.2-.63-.19-.97 0-.58.2-1.17.68-1.66a20.31 20.31 0 0 0 .55-.59l2.27-2.48-.75-.75-.75-.75-1.5 1.45-2.05 2.02c-.3.4-.44.9-.44 1.42 0 .47.11.95.33 1.34.24.44.75.78 1.25 1.12.32.21.63.43.85.65zm2.68-1.53-1.43 1.53c-.18-.09-.5-.76-.56-.95a1.87 1.87 0 0 1 -.12-.7c.02-.93.73-1.67 1.36-2.32l.26-.27 1.73-1.76 1.65 1.59a29 29 0 0 0 -2.9 2.89z" fill="#f0f3fa"/></svg>

<!-- by TradingView --><svg width="18" height="18" viewBox="0 0 18 18" xmlns="http://www.w3.org/2000/svg"><path fill="#013668" d="M0 0h18v18H0z"/><path d="m5.26 11 .01-.04c.05-1.32.65-1.92 1.55-2.8a52.28 52.28 0 0 0 1.01-1.01L9.5 5.5 8 4c-.62.55-1.24 1.2-1.8 1.78a44 44 0 0 1-.76.8l-.11.1C4.6 7.36 4.03 7.92 4 8.82c0 .68.25 1.34.83 1.82l.28.24.15.12Zm3.17 3h.39l-.2-.2c-.13-.13-.27-.27-.43-.6-.15-.3-.2-.63-.19-.97 0-.58.2-1.17.68-1.66a20.31 20.31 0 0 0 .55-.59L11.5 7.5l-.75-.75L10 6 8.5 7.45 6.45 9.47c-.3.4-.44.9-.44 1.42 0 .47.11.95.33 1.34.24.44.75.78 1.25 1.12.32.21.63.43.85.65Zm2.68-1.53L9.68 14c-.18-.09-.5-.76-.56-.95a1.87 1.87 0 0 1-.12-.7c.02-.93.73-1.67 1.36-2.32l.26-.27L12.35 8 14 9.59a29 29 0 0 0-2.9 2.89Z" fill="#F0F3FA"/></svg>
